X:120
T: Loo Bridge
S: B.Breathnach:"Ceol Rince na hEireann" IV/24 (gan ainm)
Z: B.Black
N: No repeats
L: 1/8
M: 6/8
R: jig
K: G
c|Bc/d/B AFD|DED GED|A2c BGE|ABA A2c|
Bc/d/B AFD|DED GED|G2c BGE|GAG G2c ||
BAG Bcd|efe edc|BAG Bcd|ecA A2c|
BAG Bcd|efe edB|c2A Bc/d/B|GAG G2 ||
